X:19235
T:Young May Moon,The. GS.056
M:6/8
L:1/8
Q:120
S:George Spencer m/s, Leeds,1831
R:Jig
O:England
A:Leeds
N:See notes to GS.05..... 1 - not totally clear what slurring is meant.
N:dynamics and pause are shown below stave not on top. 2/1 shown in MS -
N:fingering for the double stop - 2 for C and 1 for E..Cherri.
H:1831
Z:vmp.Cherri Graebe
K:C major
G | "p"c2c c2G | A2G G2G | c2c dcd | e2c cde | f2f e2e |! dec B2G | 
"1" (AG).F (EF).G | A2G G2 || "f"G | c2G c2G | A2G G2G |!
 c2c dcd | e2c cde | 
f2f e2e | dec "pause" B2G | AGF EFG | A2c "2/1"[E2c2] ||
